X:322
T:Crusader's March, The
C:Joe Buchanan's Scottish Tome - Page 097.1
I:097 1
R:March
Z:Carl Allison
L:1/8
M:2/4
K:Amaj
AB | c2 c2 c2 (Ac) | e2 (e>f) e2 (fg) | a>g fe ce A>c | (c>B) (B>c) B2 A>B |
c2 c2 c2 (Ac) | e2 (e>f) e2 (ce) | ec dB (c>e) (dB) | A2 (A>B) A2 A/B/c/d/ |
e2 (e>f) edcB | (B>A) (AB) A2 (fg) | a>g fe ce A>c | (c>B) (B>c) B2 (A>B) |
c2 c2 c2 (Ac) | e2 (e>f) e2 (ce) | ec dB (c>e) (dB) | A2 (A>B) A2 :|

